X:1
T:Angus Cameron's Compliments to Alex Webster
L:1/8
M:6/8
C:Angus Cameron
R:Air
Z: Contributed 2016-05-14 17:23:20 by Duncan Saunders greenmanharper@gmail.com
K:Dmin
D/E/|F>ED A,2D|B,2D A,2D|E>FG F>ED|(E3 E2) F/G/|
A>GF C2F|B,2G A,2F|D>EF E<A^C|(D3 D2):|
|:C|F>GA/B/ c2f|e2 g c2 f/g/|a>gf f2 a/b/|(g3 g2) f/g/|1 a2 f/c/ A2 B/c/|d>BF DFB|
A>GF E<A,^C|(D3 D2:|2 c'af bge|f2 c/B/ A2 A/G/|F>ED E<A,^C|(D3 D2)||
